dist/img/i-whatsapp.svg

<svg width="17" height="16" viewBox="0 0 17 16" fill="none" xmlns="http://www.w3.org/2000/svg">
<circle cx="8.57031" cy="8" r="8" fill="#5FC766"/>
<path d="M13.1506 10.2554L11.2569 9.67075C11.0079 9.59391 10.7398 9.66984 10.5584 9.86858L10.0953 10.3759C9.90002 10.5898 9.60372 10.6585 9.34528 10.5461C8.44946 10.1563 6.56503 8.35485 6.08379 7.45378C5.94495 7.19386 5.96791 6.8689 6.13838 6.63174L6.54268 6.06936C6.70109 5.84902 6.73451 5.55311 6.62976 5.2984L5.83303 3.36098C5.64219 2.89694 5.09066 2.76186 4.73034 3.0895C4.20181 3.57012 3.57471 4.30047 3.49848 5.10959C3.36407 6.53614 3.93309 8.33443 6.08487 10.4937C8.57076 12.9883 10.5614 13.3179 11.8576 12.9803C12.5927 12.7888 13.1802 12.0213 13.551 11.3929C13.8038 10.9644 13.6042 10.3954 13.1506 10.2554Z" fill="white"/>
</svg>

<svg width="17" height="16" fill="none" xmlns="http://www.w3.org/2000/svg"><circle cx="8.57" cy="8" r="8" fill="#5FC766"/><path d="M13.15 10.255l-1.893-.584a.673.673 0 0 0-.699.198l-.463.507a.656.656 0 0 1-.75.17c-.896-.39-2.78-2.191-3.261-3.092a.788.788 0 0 1 .054-.822l.405-.563a.806.806 0 0 0 .087-.77L5.833 3.36c-.19-.464-.742-.6-1.103-.272-.528.481-1.155 1.211-1.232 2.02-.134 1.427.435 3.225 2.587 5.385 2.486 2.494 4.476 2.824 5.773 2.486.735-.191 1.322-.959 1.693-1.587.253-.429.053-.998-.4-1.138z" fill="#fff"/></svg>
